X: 25733
T: Mary MacDonald's
R: reel
M: 4/4
K: Amixolydian
|B|Adde ef~f2|fa~a2 ~f2 ef|Adde effe|1 f2 ed efed:|2 f2 ed effg:|
a2 fe ~d3 e|~f2 ed ~e3 f|a2 fe ~d3 e|~f2 ed ~e3 f|
a2 fe ~d3 e|Afed effe|a2 fe efaf|fedB AFAB||

